icon/cg/gender-male.svg

<svg viewBox="0 0 24 24" fill="none" xmlns="http://www.w3.org/2000/svg" height="1em" width="1em">
  <path fill-rule="evenodd" clip-rule="evenodd" d="M12.1888 7L12.1909 5L19.1909 5.00746L19.1834 12.0075L17.1834 12.0053L17.1873 8.41678L14.143 11.4611C15.4612 13.4063 15.2587 16.0743 13.5355 17.7975C11.5829 19.7501 8.41709 19.7501 6.46447 17.7975C4.51184 15.8449 4.51184 12.6791 6.46447 10.7264C8.16216 9.02873 10.777 8.80709 12.7141 10.0615L15.7718 7.00382L12.1888 7ZM7.87868 12.1406C9.05025 10.9691 10.9497 10.9691 12.1213 12.1406C13.2929 13.3122 13.2929 15.2117 12.1213 16.3833C10.9497 17.5549 9.05025 17.5549 7.87868 16.3833C6.70711 15.2117 6.70711 13.3122 7.87868 12.1406Z" fill="currentColor"/>
</svg>

<svg width="24" height="24" fill="none" xmlns="http://www.w3.org/2000/svg"><path fill-rule="evenodd" clip-rule="evenodd" d="m12.189 7 .002-2 7 .007-.008 7-2-.002.004-3.588-3.044 3.044a5.002 5.002 0 0 1-7.679 6.336 5 5 0 0 1 6.25-7.736l3.058-3.057L12.189 7Zm-4.31 5.14a3 3 0 1 1 4.242 4.244A3 3 0 0 1 7.88 12.14Z" fill="currentColor"/></svg>
